symbols/web/phonelink_ring/materialsymbolsrounded/phonelink_ring_fill1_40px.svg

<svg xmlns="http://www.w3.org/2000/svg" height="40" width="40"><path d="M33.625 27.667q-.375-.334-.396-.896-.021-.563.313-.979.958-1.25 1.5-2.75.541-1.5.541-3.084 0-1.583-.541-3.062-.542-1.479-1.542-2.688-.375-.458-.375-.979 0-.521.375-.937.458-.459 1.104-.438.646.021 1.021.479 1.292 1.625 2 3.584.708 1.958.708 4.041 0 2.125-.708 4.104-.708 1.98-2 3.563-.375.458-.979.479-.604.021-1.021-.437Zm-3.833-3.834q-.292-.291-.334-.771-.041-.479.209-.937.291-.5.458-1.042.167-.541.167-1.125 0-.583-.167-1.146-.167-.562-.458-1.062-.25-.5-.229-.958.02-.459.354-.792.5-.5 1.146-.438.645.063.979.605.541.833.854 1.771.312.937.312 1.979 0 1.041-.312 2-.313.958-.854 1.791-.334.542-.979.584-.646.041-1.146-.459Zm-18.667 14.5q-1.167 0-1.979-.812-.813-.813-.813-1.979V4.458q0-1.166.813-1.979.812-.812 1.979-.812h17.75q1.167 0 1.979.812.813.813.813 1.979v6.25h-2.792V8.625h-17.75v22.75h17.75v-2.083h2.792v6.25q0 1.166-.813 1.979-.812.812-1.979.812Z"/></svg>

<svg xmlns="http://www.w3.org/2000/svg" height="40" width="40"><path d="M33.625 27.667Q33.25 27.333 33.229 26.771Q33.208 26.208 33.542 25.792Q34.5 24.542 35.042 23.042Q35.583 21.542 35.583 19.958Q35.583 18.375 35.042 16.896Q34.5 15.417 33.5 14.208Q33.125 13.75 33.125 13.229Q33.125 12.708 33.5 12.292Q33.958 11.833 34.604 11.854Q35.25 11.875 35.625 12.333Q36.917 13.958 37.625 15.917Q38.333 17.875 38.333 19.958Q38.333 22.083 37.625 24.062Q36.917 26.042 35.625 27.625Q35.25 28.083 34.646 28.104Q34.042 28.125 33.625 27.667ZM29.792 23.833Q29.5 23.542 29.458 23.062Q29.417 22.583 29.667 22.125Q29.958 21.625 30.125 21.083Q30.292 20.542 30.292 19.958Q30.292 19.375 30.125 18.812Q29.958 18.25 29.667 17.75Q29.417 17.25 29.438 16.792Q29.458 16.333 29.792 16Q30.292 15.5 30.938 15.562Q31.583 15.625 31.917 16.167Q32.458 17 32.771 17.938Q33.083 18.875 33.083 19.917Q33.083 20.958 32.771 21.917Q32.458 22.875 31.917 23.708Q31.583 24.25 30.938 24.292Q30.292 24.333 29.792 23.833ZM11.125 38.333Q9.958 38.333 9.146 37.521Q8.333 36.708 8.333 35.542V4.458Q8.333 3.292 9.146 2.479Q9.958 1.667 11.125 1.667H28.875Q30.042 1.667 30.854 2.479Q31.667 3.292 31.667 4.458V10.708H28.875V8.625H11.125V31.375H28.875V29.292H31.667V35.542Q31.667 36.708 30.854 37.521Q30.042 38.333 28.875 38.333Z"/></svg>
